usr/share/icons/biglinux-icons-material-dark/16/actions/transform-shear-up.svg

<svg xmlns="http://www.w3.org/2000/svg" viewBox="0 0 16 16">
<defs id="defs3051">
<style id="current-color-scheme" type="text/css">
.ColorScheme-Text{color:#dedede}
</style>
</defs>
<path d="M2 2v9h3v-1H3V3h6v1h1V2zm4 2v8l8 2V6zm1 1.5L13 7v5.5L7 11z" class="ColorScheme-Text" style="fill:currentColor;fill-opacity:1;stroke:none"/>
</svg>

<svg xmlns="http://www.w3.org/2000/svg" viewBox="0 0 16 16">
  <defs id="defs3051">
    <style type="text/css" id="current-color-scheme">
      .ColorScheme-Text {
        color:#dedede;
      }
      </style>
  </defs>
 <path style="fill:currentColor;fill-opacity:1;stroke:none" 
       d="M 2 2 L 2 11 L 5 11 L 5 10 L 3 10 L 3 3 L 9 3 L 9 4 L 10 4 L 10 2 L 2 2 z M 6 4 L 6 12 L 14 14 L 14 6 L 6 4 z M 7 5.5 L 13 7 L 13 12.5 L 7 11 L 7 5.5 z "
     class="ColorScheme-Text"
     />
</svg>
